icons/weapons/unarmed.svg

<svg xmlns="http://www.w3.org/2000/svg" xmlns:xlink="http://www.w3.org/1999/xlink" width="127pt" height="115pt" viewBox="0 0 127 115" version="1.1">
<g id="surface1">
<path d="M 32.746094 96.054688 C 32.597656 98.132812 33.335938 99.839844 34.957031 101.179688 C 37.023438 102.515625 40.195312 103.480469 44.472656 104.074219 L 48.675781 104.296875 L 70.136719 98.058594 L 69.472656 97.613281 L 64.386719 91.820312 L 44.695312 96.945312 L 44.472656 97.390625 L 32.746094 96.054688 M 40.710938 82.011719 L 40.710938 81.789062 L 20.355469 80.007812 L 20.132812 80.675781 C 19.839844 84.539062 24.410156 86.992188 33.851562 88.03125 L 43.585938 89.144531 L 68.808594 81.789062 C 67.1875 79.414062 65.121094 77.480469 62.613281 75.996094 L 40.933594 81.789062 L 40.710938 82.011719 M 58.191406 61.734375 L 55.976562 60.84375 L 34.738281 66.414062 L 34.515625 66.636719 L 27.433594 65.746094 C 21.09375 65.003906 16.152344 63.738281 12.613281 61.957031 L 11.0625 64.410156 C 10.769531 66.339844 11.800781 67.972656 14.160156 69.3125 L 25.886719 72.207031 L 39.824219 73.992188 L 64.605469 67.082031 L 58.191406 61.734375 M 17.257812 36.328125 L 17.480469 35.660156 L 22.125 29.867188 L 20.578125 30.089844 C 13.644531 32.019531 9.882812 35.289062 9.292969 39.894531 C 8.851562 44.351562 10.25 48.289062 13.496094 51.707031 C 16.445312 55.121094 20.578125 57.128906 25.886719 57.722656 L 33.628906 58.390625 L 57.304688 51.707031 L 57.304688 50.589844 C 54.648438 47.324219 51.183594 45.316406 46.90625 44.574219 L 42.703125 44.128906 L 40.046875 44.351562 L 39.382812 44.574219 L 30.089844 46.582031 L 29.648438 46.582031 L 22.566406 43.460938 L 22.125 43.238281 L 19.027344 38.113281 L 17.480469 36.996094 L 17.257812 36.328125 M 76.554688 0.00390625 L 76.773438 0.00390625 C 81.496094 0.597656 87.46875 5.054688 94.695312 13.375 L 109.300781 32.539062 L 111.511719 36.105469 C 112.988281 37.296875 115.347656 38.039062 118.59375 38.335938 L 126.113281 39.226562 L 127 40.117188 L 127 46.804688 L 126.777344 47.472656 C 126.632812 47.769531 126.335938 47.917969 125.894531 47.917969 C 116.601562 46.730469 110.699219 45.464844 108.195312 44.128906 L 105.757812 41.675781 L 100.007812 33.878906 L 87.839844 17.609375 C 82.824219 11.519531 79.355469 8.25 77.4375 7.804688 L 44.25 15.160156 L 28.984375 34.546875 L 29.871094 34.992188 L 31.640625 36.328125 L 34.957031 36.996094 L 42.039062 35.882812 L 46.683594 34.546875 L 50.667969 32.316406 L 53.542969 29.644531 L 57.082031 26.300781 L 63.941406 23.851562 L 64.164062 23.851562 L 64.828125 24.519531 C 69.253906 32.242188 75.078125 38.558594 82.304688 43.460938 L 84.078125 44.796875 L 84.742188 45.464844 L 84.296875 46.132812 L 80.757812 50.816406 C 80.460938 51.113281 80.167969 51.261719 79.871094 51.261719 L 79.210938 51.039062 L 76.773438 49.476562 C 70.285156 45.167969 65.046875 39.820312 61.066406 33.433594 L 59.074219 35.882812 L 59.296875 41.230469 C 63.722656 44.351562 67.113281 49.105469 69.472656 55.496094 L 69.472656 56.164062 L 68.808594 56.832031 L 66.375 57.722656 C 70.800781 60.695312 74.121094 65.078125 76.332031 70.871094 L 76.332031 71.984375 L 75.667969 72.652344 L 72.128906 73.324219 C 75.667969 76.292969 78.691406 80.378906 81.199219 85.578125 L 81.199219 86.46875 L 80.316406 87.140625 L 73.675781 89.367188 C 77.21875 92.636719 80.09375 96.796875 82.304688 101.847656 L 81.863281 102.738281 L 81.421875 103.183594 L 68.367188 107.195312 L 75.667969 107.863281 C 87.765625 103.109375 97.941406 96.871094 106.203125 89.144531 L 107.085938 88.921875 L 124.789062 90.703125 L 125.007812 90.703125 L 125.453125 90.480469 L 125.894531 90.257812 L 126.558594 90.480469 L 127 91.375 L 127 99.394531 L 126.558594 100.289062 L 125.894531 100.511719 L 125.453125 100.289062 L 123.679688 98.726562 L 109.519531 97.390625 C 99.34375 105.859375 88.722656 111.726562 77.660156 114.996094 L 77.4375 114.996094 L 69.695312 114.773438 L 59.515625 112.542969 L 48.675781 112.542969 L 43.808594 111.875 C 35.402344 110.984375 29.648438 108.679688 26.550781 104.96875 C 24.632812 102.589844 23.820312 99.617188 24.117188 96.054688 L 24.558594 94.492188 C 15.117188 92.5625 10.839844 87.734375 11.726562 80.007812 L 11.949219 77.554688 C 8.703125 76.21875 6.34375 74.4375 4.867188 72.207031 C 2.949219 69.980469 2.210938 67.230469 2.65625 63.960938 C 2.800781 61.4375 3.761719 58.835938 5.53125 56.164062 C 1.84375 50.964844 0.222656 45.464844 0.664062 39.671875 C 1.402344 32.539062 6.195312 27.265625 15.046875 23.851562 L 29.207031 20.953125 L 39.382812 8.472656 L 39.824219 8.25 L 76.554688 0.00390625 "/>
</g>
</svg>

<svg xmlns="http://www.w3.org/2000/svg" width="127pt" height="115pt" viewBox="0 0 127 115"><path d="M32.746 96.055q-.221 3.116 2.211 5.125 3.099 2.003 9.516 2.894l4.203.223 21.46-6.238-.663-.446-5.086-5.793-19.692 5.125-.222.446zm7.965-14.043v-.223l-20.356-1.781-.222.668c-.293 3.863 4.277 6.316 13.719 7.355l9.734 1.114 25.223-7.356a19.3 19.3 0 0 0-6.196-5.793l-21.68 5.793zm17.48-20.278-2.214-.89-21.239 5.57-.222.223-7.082-.89c-6.34-.743-11.282-2.009-14.82-3.79l-1.552 2.453q-.44 2.894 3.098 4.903l11.727 2.894 13.937 1.785 24.781-6.91zM17.258 36.328l.222-.668 4.645-5.793-1.547.223q-10.4 2.896-11.285 9.805c-.441 4.457.957 8.394 4.203 11.812 2.95 3.414 7.082 5.422 12.39 6.016l7.743.668 23.676-6.684V50.59c-2.657-3.266-6.121-5.274-10.399-6.016l-4.203-.445-2.656.223-.664.222-9.293 2.008h-.442l-7.082-3.121-.441-.223-3.098-5.125-1.547-1.117zM76.555.004h.218q7.084.89 17.922 13.371l14.606 19.164 2.21 3.566q2.215 1.787 7.083 2.23l7.52.892.886.89v6.688l-.223.668c-.144.297-.441.445-.882.445-9.293-1.188-15.196-2.453-17.7-3.79l-2.437-2.452-5.75-7.797-12.168-16.27q-7.525-9.136-10.403-9.804L44.25 15.16 28.984 34.547l.887.445 1.77 1.336 3.316.668 7.082-1.113 4.645-1.336 3.984-2.23 2.875-2.672 3.539-3.344 6.86-2.45h.222l.664.669c4.426 7.722 10.25 14.039 17.477 18.94l1.773 1.337.664.668-.445.668-3.54 4.683q-.442.446-.886.446l-.66-.223-2.438-1.562q-9.734-6.464-15.707-16.043l-1.992 2.449.223 5.347q6.638 4.681 10.176 14.266v.668l-.664.668-2.434.89q6.64 4.46 9.957 13.15v1.112l-.664.668-3.54.672q5.31 4.454 9.071 12.254v.89l-.883.673-6.64 2.226q5.314 4.905 8.629 12.48l-.442.891-.441.446-13.055 4.011 7.301.668c12.098-4.754 22.273-10.992 30.535-18.718l.883-.223 17.703 1.781h.219l.445-.223.442-.222.664.222.441.895v8.02l-.441.894-.664.223-.442-.223-1.773-1.562-14.16-1.336q-15.265 12.702-31.86 17.605h-.222l-7.743-.223-10.18-2.23h-10.84l-4.866-.668c-8.407-.89-14.16-3.195-17.258-6.906q-2.877-3.57-2.434-8.914l.442-1.563q-14.163-2.895-12.832-14.484l.222-2.453q-4.868-2.003-7.082-5.348-2.878-3.341-2.21-8.246c.144-2.523 1.105-5.125 2.874-7.797Q.001 48.362.664 39.672q1.106-10.7 14.383-15.82l14.16-2.899 10.176-12.48.441-.223z"/></svg>
